static/logos/readme-wordmark-color.svg

<svg width="100" height="19" viewBox="0 0 100 19" fill="none" xmlns="http://www.w3.org/2000/svg">
<g clip-path="url(#clip0_1_1326)">
<path d="M38.8562 9.33455C38.8944 10.0713 39.2235 10.7629 39.771 11.2573C40.3188 11.7516 41.0404 12.0084 41.7771 11.9712C42.3559 11.9654 42.9271 11.8371 43.453 11.5947C43.9785 11.3522 44.4472 11.0012 44.8275 10.5648C44.8508 10.5263 44.8829 10.4938 44.921 10.4699C44.9588 10.4461 45.0019 10.4314 45.0469 10.4272C45.0915 10.423 45.1368 10.4294 45.1785 10.4458C45.2206 10.4621 45.258 10.4881 45.2879 10.5216L46.3418 11.6619C46.3782 11.6894 46.4084 11.7243 46.4303 11.7641C46.4523 11.804 46.4659 11.848 46.4699 11.8934C46.4739 11.9387 46.4685 11.9844 46.4541 12.0276C46.4393 12.0707 46.416 12.1103 46.385 12.1439C46.1656 12.5036 44.6512 14.4281 41.5325 14.4281C38.4138 14.4281 35.8455 12.3633 35.8455 8.85254C35.8272 8.13009 35.9541 7.41138 36.2188 6.73897C36.4836 6.06656 36.8807 5.45419 37.3868 4.93818C37.8926 4.42218 38.4972 4.01308 39.1642 3.73513C39.8311 3.45718 40.5472 3.31607 41.2699 3.32015C44.6944 3.32015 46.4066 5.38491 46.4066 8.98563C46.4066 9.08102 46.3688 9.1725 46.3012 9.23998C46.2339 9.30743 46.1422 9.34534 46.0469 9.34534H38.8526L38.8562 9.33455ZM43.6224 7.6439C43.5793 6.63311 42.9426 5.62232 41.3814 5.62232C40.108 5.62232 39.1404 6.25901 38.8994 7.6439H43.6188H43.6224Z" fill="#018EF5"/>
<path d="M92.3252 9.29497C92.3446 9.66012 92.4356 10.0179 92.5932 10.3479C92.7508 10.6779 92.972 10.9735 93.2439 11.218C93.5159 11.4626 93.8331 11.6511 94.1781 11.7729C94.5227 11.8948 94.8882 11.9475 95.2533 11.9281C95.832 11.9222 96.4033 11.7939 96.9292 11.5515C97.4547 11.3091 97.9234 10.9581 98.3036 10.5216C98.327 10.4831 98.359 10.4507 98.3968 10.4268C98.4349 10.4029 98.4781 10.3882 98.5231 10.384C98.5677 10.3799 98.613 10.3862 98.6547 10.4026C98.6964 10.419 98.7342 10.4449 98.7641 10.4784L99.818 11.6187C99.8543 11.6463 99.8846 11.6811 99.9065 11.7209C99.9284 11.7608 99.9421 11.8048 99.9461 11.8502C99.95 11.8956 99.9446 11.9413 99.9299 11.9844C99.9155 12.0276 99.8921 12.0672 99.8612 12.1007C99.6418 12.4604 98.1274 14.3849 95.0087 14.3849C91.89 14.3849 89.3216 12.3202 89.3216 8.80936C89.3058 8.08904 89.4342 7.37285 89.6997 6.70303C89.9651 6.03318 90.3619 5.42328 90.8669 4.90933C91.372 4.39537 91.9745 3.98771 92.6396 3.71044C93.3047 3.43318 94.0184 3.29191 94.7389 3.29497C98.1633 3.29497 99.8756 5.35972 99.8756 8.96044C99.8756 9.05584 99.8378 9.14735 99.7702 9.21479C99.7029 9.28224 99.6112 9.32015 99.5159 9.32015H92.3216L92.3252 9.29497ZM97.0878 7.61152C97.0446 6.60073 96.408 5.58994 94.8468 5.58994C93.5734 5.58994 92.6058 6.22663 92.3648 7.61152H97.0878Z" fill="#018EF5"/>
<path d="M56.8075 14.2662C56.6704 14.2853 56.5305 14.2724 56.3992 14.2284C56.2679 14.1843 56.1485 14.1104 56.0503 14.0125C55.9525 13.9145 55.8787 13.7951 55.8345 13.6637C55.7906 13.5324 55.7776 13.3926 55.7967 13.2554V12.3345H55.732C55.4262 13.0827 54.5449 14.4209 52.3938 14.4209C49.3435 14.4209 47.4766 12.1367 47.4766 8.8885C47.4766 5.33094 49.5629 3.28778 52.4154 3.28778C54.5017 3.28778 55.4909 4.42806 55.6528 4.82375H55.696V3.79137C55.6913 3.75012 55.6963 3.70835 55.71 3.66918C55.7237 3.63001 55.746 3.59442 55.7755 3.56507C55.8046 3.53571 55.8402 3.51333 55.8794 3.49958C55.9186 3.48583 55.9604 3.48106 56.0017 3.48563H57.9766C58.0176 3.48298 58.0582 3.48908 58.0967 3.50351C58.1348 3.51794 58.1697 3.54037 58.1985 3.56931C58.2276 3.59824 58.2499 3.63303 58.2643 3.6713C58.2787 3.70961 58.2848 3.75055 58.2823 3.79137V11.9281H59.1025C59.1431 11.9226 59.1841 11.9269 59.2226 11.9407C59.2615 11.9545 59.296 11.9773 59.3237 12.0073C59.3517 12.0373 59.3719 12.0735 59.3827 12.1129C59.3938 12.1523 59.3949 12.1938 59.3866 12.2338V13.9461C59.3913 13.9855 59.3874 14.0255 59.3751 14.0633C59.3629 14.1011 59.3424 14.1357 59.3154 14.1648C59.2884 14.1939 59.2553 14.2168 59.2187 14.2318C59.1816 14.2468 59.142 14.2537 59.1025 14.2518H56.7895L56.8075 14.2662ZM55.491 8.91008C55.491 6.84533 54.3722 5.79137 52.973 5.79137C51.4154 5.79137 50.3615 7.02159 50.3615 8.93166C50.3615 10.8417 51.4802 11.982 52.973 11.982C54.3075 11.982 55.491 10.9496 55.491 8.90648V8.91008Z" fill="#018EF5"/>
<path d="M35.1477 6.03957C35.5561 5.17878 36.1538 4.4213 36.8959 3.82374C36.9214 3.79622 36.9391 3.76266 36.948 3.72626C36.9567 3.68986 36.956 3.65184 36.9459 3.61579C36.9358 3.57972 36.9167 3.54686 36.8901 3.5203C36.8639 3.49373 36.8311 3.47437 36.7952 3.46404C36.3024 3.36678 35.8012 3.3162 35.2988 3.31296C31.7196 3.31296 30.8635 6.16907 30.8635 6.16907H30.7772V3.73022C30.7772 3.64914 30.745 3.57136 30.6876 3.51402C30.6303 3.45668 30.5525 3.42447 30.4714 3.42447H27.198C27.117 3.42447 27.0392 3.45668 26.9819 3.51402C26.9245 3.57136 26.8923 3.64914 26.8923 3.73022V5.44245C26.8878 5.48371 26.8925 5.52547 26.9062 5.56464C26.92 5.60381 26.9424 5.63939 26.9718 5.66878C27.0011 5.69813 27.0367 5.7205 27.0759 5.73425C27.115 5.74802 27.1568 5.75277 27.198 5.7482H28.2772V11.8957H27.4822C27.4407 11.8896 27.3983 11.8934 27.3584 11.9066C27.3186 11.9199 27.2824 11.9422 27.2527 11.9719C27.223 12.0016 27.2007 12.0378 27.1874 12.0777C27.1742 12.1175 27.1704 12.1599 27.1765 12.2014V13.9137C27.1738 13.9545 27.18 13.9954 27.1944 14.0337C27.2088 14.0721 27.2312 14.1068 27.2602 14.1358C27.2891 14.1647 27.3239 14.1871 27.3622 14.2015C27.4005 14.216 27.4414 14.2221 27.4822 14.2194H31.9426C32.0238 14.2194 32.1015 14.1872 32.1588 14.1299C32.2162 14.0726 32.2484 13.9948 32.2484 13.9137V12.2014C32.2484 12.1204 32.2162 12.0426 32.1588 11.9853C32.1015 11.9279 32.0238 11.8957 31.9426 11.8957H31.1837V9.21583C31.1837 7.72302 32.9823 6.01079 34.9211 6.19425C34.9703 6.19565 35.0188 6.18144 35.0595 6.15363C35.1002 6.12586 35.131 6.08594 35.1477 6.03957Z" fill="#018EF5"/>
<path d="M70.5941 11.8813V0.305769C70.6002 0.264216 70.5962 0.221829 70.5833 0.18198C70.57 0.142132 70.5477 0.105921 70.5178 0.0762309C70.4883 0.0465406 70.452 0.0241901 70.4121 0.0109584C70.3721 -0.00227329 70.3301 -0.00602323 70.2883 1.1052e-05H67.0509C67.0081 -0.00733179 66.9639 -0.00471374 66.9221 0.00766241C66.8804 0.0200386 66.8423 0.0418421 66.8103 0.0713899C66.7783 0.100938 66.7534 0.13744 66.7376 0.178078C66.7221 0.218716 66.716 0.262405 66.72 0.305769V2.018C66.716 2.06136 66.7221 2.10505 66.7376 2.14569C66.7534 2.18633 66.7783 2.22283 66.8103 2.25237C66.8423 2.28192 66.8804 2.30373 66.9221 2.3161C66.9639 2.32848 67.0081 2.3311 67.0509 2.32375H67.7703V3.90648C67.7703 4.36691 67.8135 4.80576 67.8135 4.80576H67.7703C67.5725 4.38849 66.7164 3.24821 64.7416 3.24821C61.6912 3.24821 59.7344 5.53238 59.7344 8.759C59.7344 12.3381 61.8207 14.3597 64.6732 14.3597C66.738 14.3597 67.8135 13.0216 67.9898 12.5827H68.0329V13.6619C68.0329 13.8107 68.0919 13.9535 68.1973 14.0587C68.3027 14.1639 68.4452 14.223 68.5941 14.223H70.1409C70.2581 14.223 70.3707 14.1764 70.4538 14.0935C70.5365 14.0105 70.5833 13.8979 70.5833 13.7806V11.8921L70.5941 11.8813ZM65.238 11.9029C63.6588 11.9029 62.6265 10.6295 62.6265 8.74101C62.6265 6.85252 63.7452 5.71223 65.238 5.71223C66.5761 5.71223 67.756 6.70144 67.756 8.76259C67.756 10.8237 66.666 11.9029 65.238 11.9029Z" fill="#018EF5"/>
<path d="M88.8249 11.9101H88.0155V7.14389C88.0155 4.8813 86.7421 3.28058 84.3716 3.28058C82.0011 3.28058 81.2529 4.79497 81.0551 5.07914C80.5263 3.98202 79.4508 3.28058 77.8932 3.28058C75.4544 3.28058 74.6882 4.97123 74.5767 5.16907H74.5119V3.89569C74.5238 3.83069 74.5191 3.76378 74.4986 3.70094C74.4785 3.63813 74.4425 3.58136 74.395 3.53573C74.3472 3.4901 74.2889 3.45704 74.2252 3.4395C74.1612 3.42196 74.0943 3.4205 74.0299 3.43525H72.4472C72.3202 3.43525 72.1986 3.48565 72.109 3.57537C72.0191 3.66511 71.9688 3.7868 71.9688 3.91367V13.5755C71.9688 13.6625 71.986 13.7485 72.0191 13.8288C72.0526 13.9091 72.1011 13.9821 72.1626 14.0436C72.2241 14.105 72.2972 14.1538 72.3774 14.187C72.4576 14.2203 72.5436 14.2374 72.6306 14.2374H75.6702C75.7105 14.2374 75.75 14.2295 75.7871 14.2141C75.8241 14.1988 75.858 14.1763 75.8864 14.1478C75.9148 14.1195 75.9375 14.0858 75.9526 14.0487C75.968 14.0116 75.9759 13.9718 75.9759 13.9317V12.2158C75.9821 12.1743 75.9781 12.1319 75.9651 12.0921C75.9518 12.0522 75.9295 12.016 75.8997 11.9863C75.8702 11.9566 75.8339 11.9342 75.7939 11.921C75.754 11.9078 75.7119 11.904 75.6702 11.9101H74.9076V7.2518C75.0231 6.8309 75.2759 6.46069 75.6259 6.19997C75.9759 5.93925 76.4029 5.80302 76.8393 5.81295C78.2457 5.81295 78.6378 6.73382 78.6378 8.07554V13.9676C78.6375 14.0015 78.6436 14.0351 78.6562 14.0665C78.6687 14.0979 78.6875 14.1264 78.7112 14.1505C78.7353 14.1746 78.7634 14.1938 78.7946 14.2068C78.8259 14.2199 78.8594 14.2266 78.8932 14.2266H82.3536C82.3946 14.2292 82.4353 14.2232 82.4738 14.2087C82.5119 14.1943 82.5468 14.1719 82.5756 14.1429C82.6047 14.114 82.627 14.0792 82.6414 14.0409C82.6558 14.0026 82.6619 13.9617 82.6594 13.9209V12.2158C82.6655 12.1743 82.6616 12.1319 82.6486 12.0921C82.6353 12.0522 82.613 12.016 82.5831 11.9863C82.5536 11.9566 82.5173 11.9342 82.4774 11.921C82.4375 11.9078 82.3954 11.904 82.3536 11.9101H81.5659V7.49641C81.5551 7.35587 81.5335 7.21637 81.5011 7.07914C81.6335 6.70428 81.8813 6.38112 82.209 6.15619C82.5367 5.93123 82.9274 5.81608 83.3249 5.82734C84.7098 5.82734 85.1234 6.7482 85.1234 8.08993V13.2266C85.1234 13.4947 85.2299 13.7518 85.4195 13.9414C85.609 14.1309 85.8662 14.2374 86.1342 14.2374H88.8321C88.9133 14.2374 88.991 14.2052 89.0482 14.1478C89.1054 14.0905 89.1378 14.0127 89.1378 13.9317V12.2158C89.1443 12.1736 89.1403 12.1304 89.1267 12.0899C89.113 12.0494 89.09 12.0128 89.0594 11.9829C89.0292 11.9531 88.9918 11.9309 88.9511 11.9182C88.9101 11.9055 88.8669 11.9028 88.8249 11.9101Z" fill="#018EF5"/>
<path d="M19.8034 2.37045H14.5696C13.6942 2.3702 12.8448 2.66781 12.161 3.21432C11.4772 3.76086 10.9997 4.52374 10.807 5.37766C10.6143 4.52374 10.1368 3.76086 9.45298 3.21432C8.76917 2.66781 7.91974 2.3702 7.04438 2.37045H1.81419C1.33718 2.37045 0.879712 2.55995 0.542417 2.89724C0.20512 3.23454 0.015625 3.69201 0.015625 4.16902V13.3777C0.015625 13.8547 0.20512 14.3121 0.542417 14.6494C0.879712 14.9867 1.33718 15.1762 1.81419 15.1762H5.17392C9.00126 15.1762 10.1451 16.0971 10.6919 17.9928C10.6976 18.0149 10.7107 18.0345 10.729 18.0482C10.7473 18.0619 10.7697 18.069 10.7926 18.0683H10.8142C10.8371 18.069 10.8595 18.0619 10.8778 18.0482C10.8961 18.0345 10.9092 18.0149 10.9149 17.9928C11.4652 16.0971 12.6092 15.1762 16.4329 15.1762H19.7926C20.2696 15.1762 20.7271 14.9867 21.0644 14.6494C21.4017 14.3121 21.5911 13.8547 21.5911 13.3777V4.16902C21.5912 3.69388 21.4032 3.23803 21.0682 2.90104C20.7332 2.56405 20.2785 2.3733 19.8034 2.37045ZM9.08039 12.3093C9.08039 12.3263 9.07701 12.3432 9.07054 12.3588C9.06403 12.3746 9.05446 12.3888 9.04244 12.4009C9.03043 12.4129 9.01615 12.4224 9.00043 12.429C8.98474 12.4355 8.96791 12.4388 8.9509 12.4388H2.94369C2.92668 12.4388 2.90984 12.4355 2.89414 12.429C2.87842 12.4224 2.86414 12.4129 2.85211 12.4009C2.84009 12.3888 2.83054 12.3746 2.82403 12.3588C2.81752 12.3432 2.8142 12.3263 2.8142 12.3093V11.4532C2.8142 11.4362 2.81752 11.4193 2.82403 11.4036C2.83054 11.3879 2.84009 11.3736 2.85211 11.3616C2.86414 11.3496 2.87842 11.3401 2.89414 11.3336C2.90984 11.327 2.92668 11.3237 2.94369 11.3237H8.9509C8.96791 11.3237 8.98474 11.327 9.00043 11.3336C9.01615 11.3401 9.03043 11.3496 9.04244 11.3616C9.05446 11.3736 9.06403 11.3879 9.07054 11.4036C9.07701 11.4193 9.08039 11.4362 9.08039 11.4532V12.3093ZM9.08039 10.0287C9.08039 10.0631 9.06672 10.096 9.04244 10.1203C9.01816 10.1446 8.98525 10.1582 8.9509 10.1582H2.94369C2.90934 10.1582 2.8764 10.1446 2.85211 10.1203C2.82783 10.096 2.8142 10.0631 2.8142 10.0287V9.17262C2.8142 9.13827 2.82783 9.10532 2.85211 9.08104C2.8764 9.05676 2.90934 9.04313 2.94369 9.04313H8.9509C8.98525 9.04313 9.01816 9.05676 9.04244 9.08104C9.06672 9.10532 9.08039 9.13827 9.08039 9.17262V10.0287ZM9.08039 7.74816C9.08039 7.78251 9.06672 7.81543 9.04244 7.83971C9.01816 7.86399 8.98525 7.87766 8.9509 7.87766H2.94369C2.90934 7.87766 2.8764 7.86399 2.85211 7.83971C2.82783 7.81543 2.8142 7.78251 2.8142 7.74816V6.89205C2.8142 6.85769 2.82783 6.82474 2.85211 6.80046C2.8764 6.77618 2.90934 6.76255 2.94369 6.76255H8.9509C8.98525 6.76255 9.01816 6.77618 9.04244 6.80046C9.06672 6.82474 9.08039 6.85769 9.08039 6.89205V7.74816ZM18.7926 12.3057C18.7926 12.3227 18.7892 12.3396 18.7828 12.3552C18.7763 12.371 18.7667 12.3852 18.7547 12.3973C18.7427 12.4093 18.7284 12.4188 18.7127 12.4254C18.697 12.4319 18.6801 12.4352 18.6631 12.4352H12.6559C12.6389 12.4352 12.6221 12.4319 12.6064 12.4254C12.5906 12.4188 12.5764 12.4093 12.5643 12.3973C12.5523 12.3852 12.5428 12.371 12.5363 12.3552C12.5297 12.3396 12.5264 12.3227 12.5264 12.3057V11.4496C12.5264 11.4326 12.5297 11.4158 12.5363 11.4C12.5428 11.3843 12.5523 11.37 12.5643 11.358C12.5764 11.346 12.5906 11.3365 12.6064 11.33C12.6221 11.3234 12.6389 11.3201 12.6559 11.3201H18.6631C18.6801 11.3201 18.697 11.3234 18.7127 11.33C18.7284 11.3365 18.7427 11.346 18.7547 11.358C18.7667 11.37 18.7763 11.3843 18.7828 11.4C18.7892 11.4158 18.7926 11.4326 18.7926 11.4496V12.3057ZM18.7926 10.0251C18.7926 10.0595 18.779 10.0924 18.7547 10.1167C18.7304 10.141 18.6975 10.1546 18.6631 10.1546H12.6559C12.6216 10.1546 12.5886 10.141 12.5643 10.1167C12.5401 10.0924 12.5264 10.0595 12.5264 10.0251V9.16902C12.5264 9.13467 12.5401 9.10172 12.5643 9.07744C12.5886 9.05316 12.6216 9.03953 12.6559 9.03953H18.6631C18.6975 9.03953 18.7304 9.05316 18.7547 9.07744C18.779 9.10172 18.7926 9.13467 18.7926 9.16902V10.0251ZM18.7926 7.74456C18.7926 7.77888 18.779 7.81183 18.7547 7.83611C18.7304 7.86039 18.6975 7.87406 18.6631 7.87406H12.6559C12.6216 7.87406 12.5886 7.86039 12.5643 7.83611C12.5401 7.81183 12.5264 7.77888 12.5264 7.74456V6.89205C12.5264 6.85769 12.5401 6.82474 12.5643 6.80046C12.5886 6.77618 12.6216 6.76255 12.6559 6.76255H18.6631C18.6975 6.76255 18.7304 6.77618 18.7547 6.80046C18.779 6.82474 18.7926 6.85769 18.7926 6.89205V7.74816V7.74456Z" fill="#018EF5"/>
</g>
<defs>
<clipPath id="clip0_1_1326">
<rect width="100" height="18.3453" fill="white"/>
</clipPath>
</defs>
</svg>

<svg xmlns="http://www.w3.org/2000/svg" width="336.842" height="64" fill="none" viewBox="0 0 100 19"><g fill="#018EF5" clip-path="url(#a)"><path d="M38.856 9.335a2.785 2.785 0 0 0 2.921 2.636 4.102 4.102 0 0 0 3.05-1.406.288.288 0 0 1 .46-.043l1.055 1.14a.324.324 0 0 1 .128.231.332.332 0 0 1-.085.25c-.22.36-1.734 2.285-4.852 2.285-3.12 0-5.688-2.065-5.688-5.575A5.397 5.397 0 0 1 41.27 3.32c3.424 0 5.137 2.065 5.137 5.666a.36.36 0 0 1-.36.36h-7.194l.003-.011Zm4.766-1.691c-.043-1.01-.68-2.022-2.24-2.022-1.274 0-2.242.637-2.483 2.022h4.723ZM92.325 9.295a2.786 2.786 0 0 0 2.928 2.633 4.104 4.104 0 0 0 3.05-1.406.291.291 0 0 1 .22-.138.288.288 0 0 1 .241.094l1.054 1.14a.326.326 0 0 1 .043.483c-.22.36-1.734 2.284-4.852 2.284-3.119 0-5.687-2.065-5.687-5.576a5.395 5.395 0 0 1 5.417-5.514c3.424 0 5.137 2.065 5.137 5.665a.36.36 0 0 1-.36.36h-7.194l.003-.025Zm4.763-1.683c-.043-1.011-.68-2.022-2.241-2.022-1.274 0-2.241.637-2.482 2.022h4.723ZM56.807 14.266a.896.896 0 0 1-1.01-1.01v-.921h-.065c-.306.748-1.187 2.086-3.338 2.086-3.05 0-4.917-2.284-4.917-5.532 0-3.558 2.086-5.601 4.938-5.601 2.087 0 3.076 1.14 3.238 1.536h.043V3.79a.276.276 0 0 1 .306-.305h1.975a.288.288 0 0 1 .305.305v8.137h.82a.254.254 0 0 1 .28.185c.012.04.013.08.005.12v1.713a.274.274 0 0 1-.285.306H56.79l.018.014ZM55.491 8.91c0-2.065-1.119-3.119-2.518-3.119-1.558 0-2.611 1.23-2.611 3.14 0 1.91 1.118 3.051 2.611 3.051 1.334 0 2.518-1.032 2.518-3.076v.004ZM35.148 6.04a6.327 6.327 0 0 1 1.748-2.216.22.22 0 0 0-.1-.36 7.996 7.996 0 0 0-1.497-.151c-3.58 0-4.436 2.856-4.436 2.856h-.086V3.73a.306.306 0 0 0-.306-.306h-3.273a.306.306 0 0 0-.306.306v1.712a.279.279 0 0 0 .184.292c.039.014.08.019.122.014h1.08v6.148h-.796a.27.27 0 0 0-.305.305v1.713a.287.287 0 0 0 .305.305h4.46a.306.306 0 0 0 .306-.305V12.2a.305.305 0 0 0-.305-.305h-.76v-2.68c0-1.493 1.8-3.205 3.738-3.022a.234.234 0 0 0 .227-.154ZM70.594 11.881V.306a.273.273 0 0 0-.076-.23.268.268 0 0 0-.23-.076h-3.237a.285.285 0 0 0-.331.306v1.712a.285.285 0 0 0 .33.306h.72v1.582c0 .46.044.9.044.9h-.044c-.197-.418-1.054-1.558-3.028-1.558-3.05 0-5.008 2.284-5.008 5.511 0 3.58 2.087 5.6 4.94 5.6 2.064 0 3.14-1.337 3.316-1.776h.043v1.079a.56.56 0 0 0 .561.561h1.547a.443.443 0 0 0 .442-.442v-1.889l.011-.01Zm-5.356.022c-1.58 0-2.611-1.274-2.611-3.162s1.118-3.029 2.611-3.029c1.338 0 2.518.99 2.518 3.05 0 2.062-1.09 3.14-2.518 3.14ZM88.825 11.91h-.81V7.144c0-2.263-1.273-3.863-3.643-3.863s-3.12 1.514-3.317 1.798c-.529-1.097-1.604-1.798-3.162-1.798-2.439 0-3.205 1.69-3.316 1.888h-.065V3.896a.397.397 0 0 0-.287-.457.4.4 0 0 0-.195-.004h-1.583a.478.478 0 0 0-.478.479v9.662a.665.665 0 0 0 .662.661h3.04a.304.304 0 0 0 .305-.305v-1.716a.27.27 0 0 0-.306-.306h-.762V7.252a1.957 1.957 0 0 1 1.931-1.439c1.407 0 1.799.92 1.799 2.263v5.892a.26.26 0 0 0 .073.182.259.259 0 0 0 .182.077h3.46a.288.288 0 0 0 .306-.306v-1.705a.272.272 0 0 0-.182-.295.27.27 0 0 0-.123-.01h-.788V7.495c-.01-.14-.032-.28-.065-.417a1.878 1.878 0 0 1 1.824-1.252c1.385 0 1.798.921 1.798 2.263v5.137a1.01 1.01 0 0 0 1.011 1.01h2.698a.305.305 0 0 0 .306-.305v-1.716a.268.268 0 0 0-.187-.298.27.27 0 0 0-.126-.008ZM19.803 2.37H14.57a3.856 3.856 0 0 0-3.763 3.008A3.856 3.856 0 0 0 7.044 2.37h-5.23A1.799 1.799 0 0 0 .016 4.17v9.209a1.798 1.798 0 0 0 1.798 1.798h3.36c3.827 0 4.971.921 5.518 2.817a.1.1 0 0 0 .1.075h.022a.1.1 0 0 0 .1-.075c.551-1.896 1.695-2.817 5.519-2.817h3.36a1.799 1.799 0 0 0 1.798-1.798V4.169a1.798 1.798 0 0 0-1.788-1.799ZM9.08 12.31a.13.13 0 0 1-.13.129H2.945a.13.13 0 0 1-.13-.13v-.856a.13.13 0 0 1 .13-.13H8.95a.128.128 0 0 1 .091.039.13.13 0 0 1 .038.091v.856Zm0-2.281a.13.13 0 0 1-.13.13H2.945a.13.13 0 0 1-.13-.13v-.856a.13.13 0 0 1 .13-.13H8.95a.13.13 0 0 1 .13.13v.856Zm0-2.28a.13.13 0 0 1-.13.129H2.945a.13.13 0 0 1-.13-.13v-.856a.13.13 0 0 1 .13-.13H8.95a.13.13 0 0 1 .13.13v.856Zm9.713 4.557a.13.13 0 0 1-.08.12.13.13 0 0 1-.05.01h-6.007a.13.13 0 0 1-.13-.13v-.856a.128.128 0 0 1 .08-.12.128.128 0 0 1 .05-.01h6.007a.128.128 0 0 1 .092.038.13.13 0 0 1 .038.092v.856Zm0-2.28a.13.13 0 0 1-.13.129h-6.007a.13.13 0 0 1-.13-.13V9.17a.13.13 0 0 1 .13-.13h6.007a.13.13 0 0 1 .13.13v.856Zm0-2.281a.13.13 0 0 1-.13.13h-6.007a.13.13 0 0 1-.13-.13v-.853a.13.13 0 0 1 .13-.13h6.007a.13.13 0 0 1 .13.13v.856-.003Z"/></g><defs><clipPath id="a"><path fill="#fff" d="M0 0h100v18.345H0z"/></clipPath></defs></svg>
